X:1745
T:Albert Road
M:C|
L:1/8
C:Paul Meehan
R:reel
D:North Cregg: Summer at my Feet
Z:Devin McCabe
K:A
EABc ecBc|ecBA FBAF|EABc eAce|fcec BAFA|
!EABc ecBc|ecBA FBc=f|fc c/2c/2c afec|1BAGB A2 F/2A/2F:|2BAGB A2AB|
!|:cffe fece|fcec BAFB|cffe fece|acec BAFA|
!cffe fece|fcec ~B3d|cA A/2A/2A cefg|1afec BcAB:|2afec BAFA||
